X: 40039
T: Throne's Gold Stone, The
R: reel
M: 4/4
K: Dminor
DE|"Dm" D2 DEFE D2|"Bb" B,DCD "C" FEDC|"Dm" D2 DEFE D2|"C" EAAG "Am" AGFE|
"Dm" D2 DEFE D2|"Bb" B,DCD "C" FEDC|"Dm" DFEG "Gm" FAGE|"Am" FDEC"Dm"D2:|
|:DE|"F" F2 FGAG F2|"C" EF^FG AGEG|"F" F2 FGAG F2|"C" EGFE "Dm" D2 E2|
"F" F2 FGAG F2|"C"EF^FG AGEG|"F" FGAF "Gm" EFGE|"Am"DFEC "Dm" D2:|

